build/communication/HeadsetOutline.svg

<svg xmlns="http://www.w3.org/2000/svg" fill="none" viewBox="0 0 24 24" focusable="false"><path d="M0 0H24V24H0z"/><path fill="#74767B" fill-rule="evenodd" d="M7.64998 9.65C7.64998 7.24756 9.59754 5.3 12 5.3C14.4024 5.3 16.35 7.24756 16.35 9.65L16.35 14.1527C16.35 15.6632 15.2859 16.9252 13.8664 17.2299C13.5773 16.4811 12.8507 15.95 12 15.95C10.8954 15.95 9.99997 16.8454 9.99997 17.95C9.99997 19.0546 10.8954 19.95 12 19.95C12.8977 19.95 13.6573 19.3585 13.9103 18.544C15.7865 18.244 17.271 16.7706 17.5875 14.9L18.2999 14.9C19.3769 14.9 20.2499 14.027 20.2499 12.95L20.2499 11.05C20.2499 9.97307 19.3769 9.10002 18.2999 9.10002L17.6236 9.10002C17.347 6.2377 14.9348 4 12 4C9.06513 4 6.65293 6.23767 6.37641 9.09998L5.7 9.09998C4.62305 9.09998 3.75 9.97302 3.75 11.05L3.75 12.95C3.75 14.0269 4.62304 14.9 5.7 14.9L6.9725 14.9C6.98161 14.9004 6.99077 14.9005 6.99998 14.9005C7.35896 14.9005 7.64998 14.6095 7.64998 14.2505L7.64998 9.65ZM17.65 10.4L17.65 13.6L18.2999 13.6C18.6589 13.6 18.9499 13.309 18.9499 12.95L18.9499 11.05C18.9499 10.691 18.6589 10.4 18.2999 10.4L17.65 10.4ZM5.7 10.4L6.34998 10.4L6.34998 13.6L5.7 13.6C5.34101 13.6 5.05 13.309 5.05 12.95L5.05 11.05C5.05 10.691 5.34101 10.4 5.7 10.4ZM12.7 17.95C12.7 18.3366 12.3866 18.65 12 18.65C11.6134 18.65 11.3 18.3366 11.3 17.95C11.3 17.5634 11.6134 17.25 12 17.25C12.3866 17.25 12.7 17.5634 12.7 17.95Z"/></svg>

<svg xmlns="http://www.w3.org/2000/svg" fill="none" viewBox="0 0 24 24" focusable="false"><path fill="#74767B" fill-rule="evenodd" d="M7.65 9.65a4.349 4.349 0 1 1 8.7 0v4.5c0 1.51-1.07 2.77-2.49 3.07A2 2 0 0 0 12 15.95c-1.11 0-2 .89-2 2a2 2 0 0 0 2 2c.89 0 1.65-.6 1.91-1.41 1.87-.3 3.36-1.77 3.67-3.64h.71c1.08 0 1.96-.88 1.96-1.95v-1.9c0-1.08-.88-1.95-1.96-1.95h-.67A5.647 5.647 0 0 0 12 4C9.06 4 6.65 6.23 6.37 9.09h-.68c-1.07 0-1.94.88-1.94 1.96v1.9c0 1.07.87 1.95 1.94 1.95H7c.35 0 .65-.3.65-.65zm10 .75v3.2h.64c.36 0 .66-.3.66-.65v-1.9c0-.36-.3-.65-.66-.65zm-11.96 0h.65v3.2h-.65c-.35 0-.64-.3-.64-.65v-1.9c0-.36.29-.65.64-.65m7.01 7.55c0 .38-.32.7-.7.7a.71.71 0 0 1-.71-.7c0-.39.32-.7.71-.7.38 0 .7.31.7.7"/></svg>
